X:1
T:James Gibb editions
T:Amor sia benedetto -Antonelli
%%score [ 1 2 3 ]
L:1/8
Q:1/4=90
M:2/2
K:C
V:1 treble-8 nm="Tenor I" snm="T I"
V:2 treble-8 nm="Tenor II" snm="T II"
V:3 bass nm="Bass" snm="B"
V:1
"^Amor sia benedetto""^Cornelio Antonelli da Rimini\n(C16th)" z2 c2 c2 e2 | d2 f2 e4 | d2 c3 c B2 | %3
w: A- mor sia|be- ne- det-|to Poi che mi|
w: Sia be- ne-|det- to~il gior-|no Ch'io vi- di~~il|
 c2 c2 d4 |[M:2/2][K:treble-8] e4 | z2 e2 e2 g2 | f2 f2 e4 | d4 || z2 c2 c2 B2 | c2 d2 e3 d | %10
w: puns' il pet-|to|Di don- na|co- sì bel-|la|Più va- g'e|più lu- cent' as-|
w: vi- so~~a- dor-|no|Più lu- cen-|te che'l so-|le|Et dol- ce|son le~~an- ge- li-|
 c2 d2 B4 | ^c8 :| %12
w: sai che stel-|la.|
w: che pa- ro-|le.|
V:2
 z2 A2 A2 c2 | B2 d2 (d2 ^c2) | A2 A3 A G2 | A2 A2 B4 |[M:2/2][K:treble-8] c4 | z2 c2 c2 e2 | %6
w: A- mor sia|be- ne- det\- *|to Poi che mi|puns' il pet-|to|Di don- na|
w: Sia be- ne-|det- to~il gior\- *|no Ch'io vi- di~~il|vi- so~~a- dor-|no|Più lu- cen-|
 d2 d2 (d2 ^c2) | A4 || z2 A2 A2 ^G2 | A2 B2 c2 B2 | A2 A2 (A2 ^G2) | A8 :| %12
w: co- sì bel\- *|la|Più va- g'e|più lu- cent' as-|sai che stel\- *|la.|
w: te che'l so\- *|le|Et dol- ce|son le~~an- ge- li-|che pa- ro\- *|le.|
V:3
 z2 F,2 F,2 C,2 | G,2 D,2 A,4 | D,2 F,3 F, E,2 | F,2 F,2 G,4 |[M:2/2] C,4 | z2 C,2 C,2 C,2 | %6
w: A- mor sia|be- ne- det-|to Poi che mi|puns' il pet-|to|Di don- na|
w: Sia be- ne-|det- to~il gior-|no Ch'io vi- di~~il|vi- so~~a- dor-|no|Più lu- cen-|
 D,2 D,2 A,,4 | D,4 || z2 F,2 F,2 E,2 | F,2 G,2 C,2 E,2 | F,2 D,2 E,4 | A,,8 :| %12
w: co- sì bel-|la|Più va- g'e|più lu- cent' as-|sai che stel-|la.|
w: te che'l so-|le|Et dol- ce|son le~~an- ge- li-|che pa- ro-|le.|

